build/img/sprite/icon-maindirection-guide.svg

<svg width="85" height="85" viewBox="0 0 85 85" fill="none" xmlns="http://www.w3.org/2000/svg">
<circle cx="42.5" cy="42.5" r="42" stroke="white"/>
<path d="M61.5231 39.9084H49.4648C50.011 38.6542 50.243 37.2387 50.184 35.8432C51.6685 35.9249 53.0297 34.8319 53.0297 33.2683C53.0297 32.7285 52.8623 32.2272 52.5773 31.8128C53.0429 31.5039 53.3508 30.9757 53.3508 30.3762V29.1438C53.3508 28.1934 52.5777 27.4204 51.6274 27.4204H50.1839V23.0673C50.184 20.2732 47.9108 18 45.1167 18H37.9846C35.1904 18 32.9173 20.2732 32.9173 23.0673V27.4203H31.4737C30.5234 27.4203 29.7503 28.1934 29.7503 29.1437V30.3761C29.7503 30.9756 30.0583 31.5038 30.5238 31.8127C30.2388 32.2271 30.0715 32.7284 30.0715 33.2682C30.0715 34.7694 31.4013 35.9911 32.9172 35.8431C32.785 37.1629 33.1349 38.7458 33.6398 39.9083H21.5781C20.1565 39.9083 19 41.0648 19 42.4865V49.3883C19 50.81 20.1565 51.9665 21.5781 51.9665H24.3525C24.2883 52.2212 24.2398 52.48 24.2076 52.7415C23.8711 52.7308 23.5344 52.8207 23.2411 53.0094C22.7686 53.3135 22.4866 53.8264 22.4866 54.3815V56.5328H21.5542C20.92 56.5328 20.3613 56.983 20.2257 57.6032C19.9932 58.6665 19.8863 59.7559 19.9081 60.8411C19.9261 61.7407 20.0329 62.6431 20.2256 63.5234C20.3613 64.1437 20.9201 64.5938 21.5541 64.5938H22.4866V65.2969C22.4866 65.6852 22.8014 66 23.1897 66C23.578 66 23.8928 65.6852 23.8928 65.2969V64.5938H24.2923C25.5832 64.5938 26.6335 63.5435 26.6335 62.2525V58.8741C26.6335 57.5831 25.5832 56.5328 24.2923 56.5328H23.8929V54.3816C23.9023 54.1961 24.0721 54.0892 24.2749 54.1732L31.6676 57.5361V65.2969C31.6676 65.6852 31.9824 66 32.3707 66C32.759 66 33.0738 65.6852 33.0738 65.2969V57.5357L40.8476 53.9993V65.2969C40.8476 65.6852 41.1624 66 41.5507 66C41.939 66 42.2538 65.6852 42.2538 65.2969V53.9992C42.4266 54.0846 49.8423 57.446 50.028 57.5359V65.2969C50.028 65.6852 50.3428 66 50.7311 66C51.1194 66 51.4342 65.6852 51.4342 65.2969V57.5359L58.8268 54.1731C59.0334 54.0898 59.199 54.196 59.2085 54.3816V56.5329H58.8092C57.5182 56.5329 56.4679 57.5832 56.4679 58.8742V62.2526C56.4679 63.5436 57.5182 64.5938 58.8092 64.5938H59.2086V65.297C59.2086 65.6853 59.5234 66.0001 59.9118 66.0001C60.3001 66.0001 60.6149 65.6853 60.6149 65.297V64.5938H61.5473C62.1813 64.5938 62.7401 64.1437 62.8758 63.5235C63.0685 62.6431 63.1753 61.7407 63.1934 60.8412C63.2151 59.756 63.1083 58.6666 62.8758 57.6033C62.7401 56.9831 62.1814 56.5329 61.5472 56.5329H60.6149V54.3816C60.6149 53.8265 60.3328 53.3136 59.8604 53.0095C59.567 52.8208 59.2304 52.7308 58.8938 52.7415C58.8617 52.48 58.8131 52.2213 58.749 51.9666H61.5233C62.9449 51.9666 64.1014 50.8101 64.1014 49.3884V42.4866C64.1013 41.0649 62.9448 39.9084 61.5231 39.9084ZM22.8701 50.5603H21.5781C20.9319 50.5603 20.4062 50.0347 20.4062 49.3884V42.4866C20.4062 41.8403 20.9319 41.3147 21.5781 41.3147H22.8701V50.5603ZM24.2922 57.9392C24.8077 57.9392 25.2272 58.3586 25.2272 58.8742V62.2526C25.2272 62.7682 24.8077 63.1876 24.2922 63.1876H21.5916C21.4233 62.4078 21.33 61.6091 21.314 60.813C21.2946 59.8501 21.3881 58.8834 21.5917 57.9393H24.2922V57.9392ZM61.5095 57.9392C61.7132 58.8833 61.8065 59.8501 61.7872 60.813C61.7713 61.609 61.6778 62.4078 61.5096 63.1875H58.8091C58.2935 63.1875 57.8741 62.7681 57.8741 62.2525V58.8741C57.8741 58.3585 58.2935 57.9391 58.8091 57.9391H61.5095V57.9392ZM56.0125 41.3147V48.1724C55.3899 47.7757 54.6992 47.4863 53.9716 47.3264L47.0645 45.8085C46.5314 45.6917 46.1445 45.2106 46.1445 44.6644V43.7633C46.6851 43.4222 47.1929 43.0204 47.656 42.5573C48.0416 42.1717 48.3846 41.7551 48.686 41.3148H56.0125V41.3147ZM50.1841 34.4369V32.0996C50.9063 31.9894 51.6235 32.5112 51.6235 33.2682C51.6235 34.0115 50.9132 34.5521 50.1841 34.4369ZM34.3235 23.0673C34.3235 21.0486 35.9658 19.4062 37.9846 19.4062H45.1167C47.1354 19.4062 48.7777 21.0486 48.7777 23.0673V27.4203H34.3235V23.0673ZM32.9172 34.4369C32.1784 34.5263 31.4778 34.0436 31.4778 33.2683C31.4778 32.5145 32.1984 31.9918 32.9172 32.0997V34.4369ZM31.4737 30.6934C31.2988 30.6934 31.1566 30.5511 31.1566 30.3762V29.1438C31.1566 28.9688 31.2989 28.8266 31.4737 28.8266H51.6275C51.8025 28.8266 51.9447 28.9689 51.9447 29.1438V30.3762C51.9447 30.5512 51.8024 30.6934 51.6275 30.6934H39.8339C39.4456 30.6934 39.1308 31.0082 39.1308 31.3965C39.1308 31.7848 39.4456 32.0996 39.8339 32.0996H48.7778V36.4528C48.7788 38.3913 48.0168 40.2076 46.6616 41.5628C46.1933 42.0311 45.6711 42.4253 45.1104 42.7437C44.0223 43.3616 42.8415 43.68 41.5506 43.68C37.5656 43.68 34.3234 40.4378 34.3234 36.4528V32.0996H36.5526C36.9409 32.0996 37.2558 31.7848 37.2558 31.3965C37.2558 31.0082 36.9409 30.6934 36.5526 30.6934H31.4737ZM45.1577 46.0639L41.5506 49.6709L37.9436 46.0639C38.2439 45.6041 38.3883 45.0412 38.3631 44.4762C39.3498 44.8696 40.4253 45.0863 41.5506 45.0863C42.6602 45.0863 43.737 44.8763 44.7381 44.4789C44.69 45.0247 44.8702 45.6224 45.1577 46.0639ZM27.0888 41.3147H34.4201C35.0889 42.2925 35.9535 43.1262 36.9568 43.7593V44.6644C36.9568 45.2106 36.5699 45.6917 36.0362 45.8086L29.1296 47.3264C28.402 47.4863 27.7113 47.7757 27.0887 48.1724V41.3147H27.0888ZM24.8906 50.5603H24.2763V41.3147H25.6826V49.3917C25.374 49.7508 25.1097 50.1435 24.8906 50.5603ZM32.3703 56.3108L25.5759 53.2201C25.7052 51.0471 27.2861 49.1715 29.4317 48.6998L33.6804 47.7661L39.1437 53.2294L32.3703 56.3108ZM50.731 56.3108L43.9577 53.2295L45.2861 51.901C45.5607 51.6264 45.5607 51.1812 45.2861 50.9067C45.0115 50.6321 44.5663 50.6321 44.2918 50.9067L42.5892 52.6093C41.9246 52.3302 41.1766 52.3302 40.512 52.6093L35.3106 47.408L36.3376 47.1823C36.5294 47.1403 36.7114 47.075 36.8838 46.993L40.9206 51.0299C41.0888 51.1982 41.3126 51.2909 41.5505 51.2909C41.7885 51.2909 42.0123 51.1982 42.1803 51.03L46.2172 46.993C46.3894 47.075 46.5713 47.1402 46.763 47.1822L47.7904 47.408L46.6341 48.5644C46.3595 48.839 46.3595 49.2842 46.6341 49.5587C46.9087 49.8333 47.3539 49.8333 47.6284 49.5587L49.4208 47.7663L53.6695 48.6999C55.8151 49.1716 57.396 51.0472 57.5253 53.2202L50.731 56.3108ZM58.8249 50.5603H58.2107C57.9919 50.1439 57.7269 49.7505 57.4188 49.3917V41.3147H58.825V50.5603H58.8249ZM62.695 49.3884C62.695 50.0347 62.1693 50.5603 61.5231 50.5603H60.2312V41.3147H61.5231C62.1693 41.3147 62.695 41.8403 62.695 42.4866V49.3884ZM45.3768 35.9352C45.7651 35.9352 46.0799 35.6204 46.0799 35.2321V33.7016C46.0799 33.3133 45.7651 32.9985 45.3768 32.9985C44.9884 32.9985 44.6736 33.3133 44.6736 33.7016V35.2321C44.6736 35.6204 44.9884 35.9352 45.3768 35.9352ZM37.0214 33.7016V35.2321C37.0214 35.6204 37.3362 35.9352 37.7245 35.9352C38.1128 35.9352 38.4276 35.6204 38.4276 35.2321V33.7016C38.4276 33.3133 38.1128 32.9985 37.7245 32.9985C37.3362 32.9985 37.0214 33.3133 37.0214 33.7016ZM39.682 40.3318C40.072 40.5457 40.7057 40.8025 41.5099 40.8109C42.3209 40.8194 43.0187 40.5515 43.4192 40.3318C43.7597 40.1451 43.8843 39.7177 43.6975 39.3772C43.5108 39.0367 43.0833 38.9122 42.7428 39.0988C42.4829 39.2414 42.0597 39.4105 41.5247 39.4047C41.0117 39.3993 40.6072 39.2354 40.3583 39.0988C40.0177 38.912 39.5904 39.0367 39.4037 39.3772C39.2169 39.7177 39.3416 40.1451 39.682 40.3318Z" fill="white"/>
</svg>

<svg width="85" height="85" fill="none" xmlns="http://www.w3.org/2000/svg"><circle cx="42.5" cy="42.5" r="42" stroke="#fff"/><path d="M61.523 39.908H49.465c.546-1.254.778-2.67.719-4.065 1.485.082 2.846-1.011 2.846-2.575a2.56 2.56 0 00-.453-1.455c.466-.31.774-.837.774-1.437v-1.232c0-.95-.773-1.724-1.724-1.724h-1.443v-4.353A5.073 5.073 0 0045.117 18h-7.132a5.073 5.073 0 00-5.068 5.067v4.353h-1.443c-.95 0-1.724.773-1.724 1.724v1.232c0 .6.308 1.128.774 1.437a2.56 2.56 0 00-.453 1.455c0 1.501 1.33 2.723 2.846 2.575-.132 1.32.218 2.903.723 4.065H21.578A2.581 2.581 0 0019 42.486v6.902a2.581 2.581 0 002.578 2.579h2.774a6.342 6.342 0 00-.144.775 1.686 1.686 0 00-.967.267 1.628 1.628 0 00-.754 1.373v2.15h-.933c-.634 0-1.193.451-1.328 1.071a13.872 13.872 0 000 5.92c.135.62.694 1.07 1.328 1.07h.933v.704a.703.703 0 001.406 0v-.703h.4c1.29 0 2.34-1.05 2.34-2.341v-3.379a2.344 2.344 0 00-2.34-2.341h-.4v-2.151c.01-.186.18-.293.382-.209l7.393 3.363v7.76a.703.703 0 001.406 0v-7.76l7.774-3.537v11.298a.703.703 0 001.406 0V53.999c.173.086 7.588 3.447 7.774 3.537v7.76a.703.703 0 001.406 0v-7.76l7.393-3.363c.206-.083.372.023.382.209v2.15h-.4a2.344 2.344 0 00-2.341 2.342v3.379a2.344 2.344 0 002.341 2.34h.4v.704a.703.703 0 001.406 0v-.703h.932a1.37 1.37 0 001.329-1.07 13.88 13.88 0 000-5.92 1.369 1.369 0 00-1.329-1.071h-.932v-2.151c0-.555-.282-1.068-.755-1.372a1.685 1.685 0 00-.966-.268 6.34 6.34 0 00-.145-.775h2.774a2.581 2.581 0 002.578-2.579v-6.901a2.581 2.581 0 00-2.578-2.579zM22.87 50.56h-1.292a1.173 1.173 0 01-1.172-1.172v-6.901c0-.647.526-1.172 1.172-1.172h1.292v9.245zm1.422 7.38c.516 0 .935.419.935.934v3.379c0 .515-.42.935-.935.935h-2.7a12.468 12.468 0 010-5.249h2.7zm37.218 0a12.459 12.459 0 010 5.248h-2.7a.936.936 0 01-.936-.936v-3.378c0-.516.42-.935.935-.935h2.7zm-5.497-16.625v6.857a6.331 6.331 0 00-2.041-.846l-6.907-1.517a1.178 1.178 0 01-.92-1.145v-.9a8.7 8.7 0 002.541-2.45h7.327zm-5.829-6.878V32.1c.722-.11 1.44.411 1.44 1.168 0 .743-.71 1.284-1.44 1.169zm-15.86-11.37a3.665 3.665 0 013.66-3.66h7.133a3.665 3.665 0 013.66 3.66v4.353H34.325v-4.353zm-1.407 11.37c-.739.09-1.44-.393-1.44-1.169 0-.754.721-1.276 1.44-1.168v2.337zm-1.443-3.744a.317.317 0 01-.317-.317v-1.232c0-.175.142-.317.317-.317h20.153c.175 0 .318.142.318.317v1.232a.318.318 0 01-.318.317H39.834a.703.703 0 000 1.407h8.944v4.353a7.184 7.184 0 01-2.116 5.11c-.469.468-.99.862-1.552 1.18a7.078 7.078 0 01-3.56.937c-3.984 0-7.227-3.242-7.227-7.227V32.1h2.23a.703.703 0 100-1.407h-5.08zm13.684 15.37l-3.607 3.608-3.607-3.607c.3-.46.444-1.023.42-1.588.986.394 2.061.61 3.187.61 1.11 0 2.186-.21 3.187-.607-.048.546.132 1.143.42 1.585zm-18.07-4.748h7.332a8.703 8.703 0 002.537 2.444v.905c0 .547-.387 1.028-.92 1.145l-6.907 1.517a6.34 6.34 0 00-2.041.846v-6.857zm-2.197 9.245h-.615v-9.245h1.407v8.077a6.26 6.26 0 00-.792 1.168zm7.48 5.75l-6.795-3.09c.13-2.173 1.71-4.048 3.856-4.52l4.248-.934 5.464 5.463-6.774 3.082zm18.36 0l-6.773-3.08 1.328-1.329a.703.703 0 10-.994-.994l-1.703 1.702a2.681 2.681 0 00-2.077 0l-5.201-5.201 1.027-.226c.191-.042.373-.107.546-.189l4.037 4.037a.885.885 0 00.63.26.884.884 0 00.63-.26l4.036-4.037c.172.082.354.147.546.19l1.027.225-1.156 1.156a.703.703 0 10.994.995l1.793-1.793 4.248.934a4.954 4.954 0 013.856 4.52l-6.794 3.09zm8.094-5.75h-.614a6.272 6.272 0 00-.792-1.168v-8.077h1.406v9.245zm3.87-1.172c0 .647-.526 1.172-1.172 1.172h-1.292v-9.245h1.292c.646 0 1.172.525 1.172 1.172v6.901zM45.377 35.935a.703.703 0 00.703-.703v-1.53a.703.703 0 00-1.406 0v1.53c0 .388.314.703.703.703zm-8.356-2.233v1.53a.703.703 0 001.407 0v-1.53a.703.703 0 00-1.407 0zm2.661 6.63a3.91 3.91 0 001.828.479 4.015 4.015 0 001.91-.48.703.703 0 10-.677-1.232 2.49 2.49 0 01-1.218.306 2.49 2.49 0 01-1.167-.306.703.703 0 10-.676 1.233z" fill="#fff"/></svg>
